contributed-vectors/grammarly.svg

<svg xmlns="http://www.w3.org/2000/svg" width="192" height="192" fill="none"><g clip-path="url(#a)"><path fill="#96DFD3" d="M96 184c48.601 0 88-39.399 88-88S144.601 8 96 8 8 47.399 8 96s39.399 88 88 88Z"/><path fill="#fff" fill-rule="evenodd" d="M104.8 109.3c.4 2 2.3 3.4 4.3 3.4h6.5l3.8-.5c-6 8.8-16.5 12.9-27.9 11.1-9.3-1.5-17.3-7.8-20.7-16.6-7.7-20 6.9-39.1 25.9-39.1 9.9 0 18.6 5.8 23.6 12.8 1.4 2 3.9 2.6 5.9 1.3 1.8-1.3 2.3-3.6 1.3-5.5-6.9-10.8-19.3-17.6-33.2-16.7-18.1 1.2-32.8 16.1-33.8 34.2-1.2 21.1 15.5 38.4 36.3 38.4 10.9 0 20.7-4.8 27.4-12.5l-.8 4.4v4c0 2.1 1.4 4 3.4 4.3 2.7.5 5-1.6 5-4.1v-23.8H109c-2.7 0-4.7 2.3-4.2 4.9Z" clip-rule="evenodd"/></g><defs><clipPath id="a"><path fill="#fff" d="M0 0h192v192H0z"/></clipPath></defs></svg>

<svg width="192" height="192" viewBox="0 0 192 192" fill="none" xmlns="http://www.w3.org/2000/svg">
<g clip-path="url(#clip0)">
<path d="M96 184C144.601 184 184 144.601 184 96C184 47.3989 144.601 8 96 8C47.3989 8 8 47.3989 8 96C8 144.601 47.3989 184 96 184Z" fill="#96DFD3"/>
<path fill-rule="evenodd" clip-rule="evenodd" d="M104.8 109.3C105.2 111.3 107.1 112.7 109.1 112.7H115.6L119.4 112.2C113.4 121 102.9 125.1 91.5 123.3C82.2 121.8 74.2 115.5 70.8 106.7C63.1 86.7 77.7 67.6 96.7 67.6C106.6 67.6 115.3 73.4 120.3 80.4C121.7 82.4 124.2 83 126.2 81.7C128 80.4 128.5 78.1 127.5 76.2C120.6 65.4 108.2 58.6 94.3 59.5C76.2 60.7 61.5 75.6 60.5 93.7C59.3 114.8 76 132.1 96.8 132.1C107.7 132.1 117.5 127.3 124.2 119.6L123.4 124V128C123.4 130.1 124.8 132 126.8 132.3C129.5 132.8 131.8 130.7 131.8 128.2V104.4H109C106.3 104.4 104.3 106.7 104.8 109.3Z" fill="white"/>
</g>
<defs>
<clipPath id="clip0">
<rect width="192" height="192" fill="white"/>
</clipPath>
</defs>
</svg>
